X:785
T: Jackie Fitzpatrick's
T: R\'il Jeaic Mhic Ghiolla Ph\'adraig
S: B.Breathnach: "Ceol Rince na hEireann" II/225
Z: B.Black
L: 1/8
M: 4/4
R: reel
K: G
EGAB c2 dc|BGGG DGBG|EAAG c3 z|egdg eAAG|
EGAB cAdc|BGGG DGBG|EAAG c3 z|egdg eA A2 ||
a2 ab aged|(3Bcd ed g3 z|eaab agef|gedg BA A2|
a2 ab aged|(3Bcd ed g3 z|eaag egdf|g2 dg eAAG ||

